assets/img/icons/balance.svg

<?xml version="1.0" encoding="iso-8859-1"?>
<!-- Generator: Adobe Illustrator 19.0.0, SVG Export Plug-In . SVG Version: 6.00 Build 0)  -->
<svg version="1.1" id="Capa_1" xmlns="http://www.w3.org/2000/svg" xmlns:xlink="http://www.w3.org/1999/xlink" x="0px" y="0px"
	 viewBox="0 0 512 512" style="enable-background:new 0 0 512 512;" xml:space="preserve">
<g>
	<g>
		<path d="M487.59,299.894h-7.662v-69.015c0-10.926-5.438-20.6-13.743-26.478v-9.397c0-13.631-11.089-24.72-24.72-24.72h-5.721
			l21.889-32.12c7.337-10.766,4.547-25.495-6.219-32.833L302.883,4.111c-5.215-3.555-11.501-4.867-17.705-3.69
			c-6.201,1.175-11.574,4.694-15.128,9.91L141.849,198.454h-35.675l8.607-87.13c0.097-0.982,0.735-1.833,1.625-2.168
			c11.089-4.181,20.699-11.989,27.059-21.985c0.501-0.787,1.446-1.237,2.424-1.138l55.955,5.528
			c4.012,0.389,7.581-2.533,7.977-6.543s-2.533-7.581-6.543-7.977l-55.955-5.528c-6.495-0.636-12.689,2.357-16.169,7.825
			c-4.676,7.35-11.742,13.09-19.895,16.164c-6.137,2.314-10.351,7.826-10.999,14.387l-8.748,88.564h-9.303L95.821,60.649
			c0.49-4.96,4.917-8.604,9.883-8.107l113.074,11.17c4.01,0.387,7.581-2.533,7.977-6.543s-2.533-7.581-6.543-7.977l-113.074-11.17
			C94.174,36.743,82.581,46.248,81.3,59.214l-10.972,111.07H51.643c-13.63,0-24.72,11.089-24.72,24.72v6.41
			c-11.151,5.134-18.915,16.406-18.915,29.465v248.695c0,17.88,14.546,32.426,32.427,32.426h407.067
			c17.88,0,32.426-14.546,32.426-32.426V410.56h7.662c9.044,0,16.401-7.357,16.401-16.4v-77.865
			C503.992,307.251,496.634,299.894,487.59,299.894z M441.465,184.876L441.465,184.876c5.586-0.001,10.129,4.543,10.129,10.129
			v3.717c-1.342-0.17-2.705-0.267-4.092-0.267h-30.955l9.253-13.579H441.465z M282.107,18.547c1.36-1.995,3.415-3.341,5.787-3.791
			c0.567-0.107,1.136-0.161,1.701-0.161c1.797,0,3.553,0.538,5.071,1.572l148.531,101.22c4.118,2.807,5.186,8.441,2.38,12.559
			l-46.686,68.506h-11.204l22.889-33.587c3.712-5.447,4.018-12.379,0.796-18.092c-4.282-7.59-6.018-16.527-4.888-25.166
			c0.84-6.427-1.988-12.701-7.38-16.375L322.106,52.76c-5.393-3.675-12.267-4.012-17.941-0.879
			c-7.625,4.21-16.578,5.863-25.208,4.655c-6.4-0.898-12.891,1.992-16.548,7.357l-91.699,134.56h-11.204L282.107,18.547z
			 M285.32,142.438c-31.771,0-57.851,24.773-59.976,56.015h-36.979L274.464,72.11c0.001,0,0.001,0,0.001,0
			c0.489-0.719,1.3-1.147,2.133-1.147c0.111,0,0.222,0.008,0.333,0.023c11.738,1.642,23.913-0.604,34.285-6.331
			c0.816-0.452,1.864-0.387,2.672,0.163l76.999,52.473c0.806,0.55,1.249,1.502,1.129,2.426c-1.537,11.749,0.825,23.903,6.648,34.225
			c0.467,0.829,0.41,1.891-0.144,2.706l-28.488,41.804h-24.733C343.172,167.211,317.093,142.438,285.32,142.438z M330.668,198.454
			h-90.695c2.09-23.189,21.624-41.424,45.347-41.424C309.044,157.029,328.579,175.265,330.668,198.454z M41.514,195.004
			c0-5.586,4.543-10.13,10.129-10.13h17.244l-1.341,13.579H41.514V195.004z M22.599,230.879c0-9.834,8.001-17.835,17.836-17.835
			h407.067c9.835,0,17.835,8.001,17.835,17.835v20.244H22.599V230.879z M465.337,479.574c0,9.834-8,17.835-17.835,17.835H40.435
			c-9.835,0-17.836-8.001-17.836-17.835V459.33h39.342c4.03,0,7.295-3.266,7.295-7.295c0-4.029-3.266-7.295-7.295-7.295H22.599
			V265.714h442.738v34.18h-69.366h-0.001c-21.856,0-40.788,12.74-49.773,31.181c-0.03,0.062-0.064,0.122-0.095,0.184
			c-0.076,0.157-0.142,0.32-0.216,0.478c-1.07,2.273-2,4.626-2.757,7.054c-0.002,0.007-0.004,0.013-0.006,0.02
			c-1.615,5.189-2.486,10.702-2.486,16.416c0,30.511,24.822,55.333,55.332,55.333h0.001h69.366v34.18H108.655
			c-4.03,0-7.295,3.266-7.295,7.295c0,4.029,3.266,7.295,7.295,7.295h356.682V479.574z M489.401,394.159
			c0,0.998-0.812,1.81-1.811,1.81h-91.618c-15.445,0-28.911-8.639-35.818-21.338c-0.314-0.577-0.614-1.163-0.901-1.756
			c-0.573-1.187-1.09-2.406-1.547-3.654c-1.602-4.366-2.476-9.08-2.476-13.994s0.875-9.628,2.476-13.994
			c0.458-1.247,0.975-2.466,1.547-3.654c0.287-0.593,0.587-1.179,0.901-1.756c6.907-12.699,20.373-21.338,35.818-21.338h91.618
			c0.998,0,1.811,0.812,1.811,1.81V394.159z"/>
	</g>
</g>
<g>
	<g>
		<path d="M397.681,325.627c-16.322,0-29.6,13.279-29.6,29.6c0,16.321,13.278,29.599,29.6,29.599c16.322,0,29.6-13.278,29.6-29.599
			C427.281,338.906,414.003,325.627,397.681,325.627z M397.681,370.235c-8.276,0-15.009-6.733-15.009-15.008
			c0-8.275,6.733-15.009,15.009-15.009s15.009,6.733,15.009,15.009S405.957,370.235,397.681,370.235z"/>
	</g>
</g>
<g>
</g>
<g>
</g>
<g>
</g>
<g>
</g>
<g>
</g>
<g>
</g>
<g>
</g>
<g>
</g>
<g>
</g>
<g>
</g>
<g>
</g>
<g>
</g>
<g>
</g>
<g>
</g>
<g>
</g>
</svg>

<svg width="512" height="512" viewBox="0 0 512 512" fill="none" xmlns="http://www.w3.org/2000/svg">
<g clip-path="url(#clip0)">
<path d="M487.59 299.894H479.928V230.879C479.928 219.953 474.49 210.279 466.185 204.401V195.004C466.185 181.373 455.096 170.284 441.465 170.284H435.744L457.633 138.164C464.97 127.398 462.18 112.669 451.414 105.331L302.883 4.11099C297.668 0.55599 291.382 -0.756011 285.178 0.42099C278.977 1.59599 273.604 5.11499 270.05 10.331L141.849 198.454H106.174L114.781 111.324C114.878 110.342 115.516 109.491 116.406 109.156C127.495 104.975 137.105 97.167 143.465 87.171C143.966 86.384 144.911 85.934 145.889 86.033L201.844 91.561C205.856 91.95 209.425 89.028 209.821 85.018C210.217 81.008 207.288 77.437 203.278 77.041L147.323 71.513C140.828 70.877 134.634 73.87 131.154 79.338C126.478 86.688 119.412 92.428 111.259 95.502C105.122 97.816 100.908 103.328 100.26 109.889L91.5121 198.453H82.2091L95.8211 60.649C96.3111 55.689 100.738 52.045 105.704 52.542L218.778 63.712C222.788 64.099 226.359 61.179 226.755 57.169C227.151 53.159 224.222 49.588 220.212 49.192L107.138 38.022C94.1741 36.743 82.5811 46.248 81.3001 59.214L70.3281 170.284H51.6431C38.0131 170.284 26.9231 181.373 26.9231 195.004V201.414C15.7721 206.548 8.00806 217.82 8.00806 230.879V479.574C8.00806 497.454 22.5541 512 40.4351 512H447.502C465.382 512 479.928 497.454 479.928 479.574V410.56H487.59C496.634 410.56 503.991 403.203 503.991 394.16V316.295C503.992 307.251 496.634 299.894 487.59 299.894ZM441.465 184.876C447.051 184.875 451.594 189.419 451.594 195.005V198.722C450.252 198.552 448.889 198.455 447.502 198.455H416.547L425.8 184.876H441.465ZM282.107 18.547C283.467 16.552 285.522 15.206 287.894 14.756C288.461 14.649 289.03 14.595 289.595 14.595C291.392 14.595 293.148 15.133 294.666 16.167L443.197 117.387C447.315 120.194 448.383 125.828 445.577 129.946L398.891 198.452H387.687L410.576 164.865C414.288 159.418 414.594 152.486 411.372 146.773C407.09 139.183 405.354 130.246 406.484 121.607C407.324 115.18 404.496 108.906 399.104 105.232L322.106 52.76C316.713 49.085 309.839 48.748 304.165 51.881C296.54 56.091 287.587 57.744 278.957 56.536C272.557 55.638 266.066 58.528 262.409 63.893L170.71 198.453H159.506L282.107 18.547ZM285.32 142.438C253.549 142.438 227.469 167.211 225.344 198.453H188.365L274.464 72.11C274.465 72.11 274.465 72.11 274.465 72.11C274.954 71.391 275.765 70.963 276.598 70.963C276.709 70.963 276.82 70.971 276.931 70.986C288.669 72.628 300.844 70.382 311.216 64.655C312.032 64.203 313.08 64.268 313.888 64.818L390.887 117.291C391.693 117.841 392.136 118.793 392.016 119.717C390.479 131.466 392.841 143.62 398.664 153.942C399.131 154.771 399.074 155.833 398.52 156.648L370.032 198.452H345.299C343.172 167.211 317.093 142.438 285.32 142.438ZM330.668 198.454H239.973C242.063 175.265 261.597 157.03 285.32 157.03C309.044 157.029 328.579 175.265 330.668 198.454ZM41.5141 195.004C41.5141 189.418 46.0571 184.874 51.6431 184.874H68.8871L67.5461 198.453H41.5141V195.004ZM22.5991 230.879C22.5991 221.045 30.6001 213.044 40.4351 213.044H447.502C457.337 213.044 465.337 221.045 465.337 230.879V251.123H22.5991V230.879ZM465.337 479.574C465.337 489.408 457.337 497.409 447.502 497.409H40.4351C30.6001 497.409 22.5991 489.408 22.5991 479.574V459.33H61.9411C65.9711 459.33 69.2361 456.064 69.2361 452.035C69.2361 448.006 65.9701 444.74 61.9411 444.74H22.5991V265.714H465.337V299.894H395.971H395.97C374.114 299.894 355.182 312.634 346.197 331.075C346.167 331.137 346.133 331.197 346.102 331.259C346.026 331.416 345.96 331.579 345.886 331.737C344.816 334.01 343.886 336.363 343.129 338.791C343.127 338.798 343.125 338.804 343.123 338.811C341.508 344 340.637 349.513 340.637 355.227C340.637 385.738 365.459 410.56 395.969 410.56H395.97H465.336V444.74H108.655C104.625 444.74 101.36 448.006 101.36 452.035C101.36 456.064 104.626 459.33 108.655 459.33H465.337V479.574ZM489.401 394.159C489.401 395.157 488.589 395.969 487.59 395.969H395.972C380.527 395.969 367.061 387.33 360.154 374.631C359.84 374.054 359.54 373.468 359.253 372.875C358.68 371.688 358.163 370.469 357.706 369.221C356.104 364.855 355.23 360.141 355.23 355.227C355.23 350.313 356.105 345.599 357.706 341.233C358.164 339.986 358.681 338.767 359.253 337.579C359.54 336.986 359.84 336.4 360.154 335.823C367.061 323.124 380.527 314.485 395.972 314.485H487.59C488.588 314.485 489.401 315.297 489.401 316.295V394.159Z" fill="#009CEA"/>
<path d="M397.681 325.627C381.359 325.627 368.081 338.906 368.081 355.227C368.081 371.548 381.359 384.826 397.681 384.826C414.003 384.826 427.281 371.548 427.281 355.227C427.281 338.906 414.003 325.627 397.681 325.627ZM397.681 370.235C389.405 370.235 382.672 363.502 382.672 355.227C382.672 346.952 389.405 340.218 397.681 340.218C405.957 340.218 412.69 346.951 412.69 355.227C412.69 363.503 405.957 370.235 397.681 370.235Z" fill="#009CEA"/>
</g>
<defs>
<clipPath id="clip0">
<rect width="512" height="512" fill="white"/>
</clipPath>
</defs>
</svg>
